icons-rebrand/svg/away-calling-presence-light.svg

<svg width="32" height="32" viewBox="0 0 32 32" fill="none" xmlns="http://www.w3.org/2000/svg">
<path d="M17.5 9C17.5 5.96243 19.9624 3.5 23 3.5C26.0375 3.5 28.5 5.96243 28.5 9C28.5 12.0376 26.0375 14.5 23 14.5C19.9624 14.5 17.5 12.0376 17.5 9ZM23 4.5C20.5147 4.5 18.5 6.51472 18.5 9C18.5 11.4853 20.5147 13.5 23 13.5C25.4852 13.5 27.5 11.4853 27.5 9C27.5 6.51472 25.4852 4.5 23 4.5ZM19.5 9C19.5 8.72386 19.7238 8.5 20 8.5L26 8.5C26.2761 8.5 26.5 8.72386 26.5 9C26.5 9.27614 26.2761 9.5 26 9.5L20 9.5C19.7238 9.5 19.5 9.27614 19.5 9Z" fill="#0F0F0F"/>
<path d="M27.8104 21.7444L25.0045 18.9382C24.4353 18.3709 23.6643 18.0525 22.8607 18.053C22.057 18.0535 21.2864 18.3729 20.718 18.941C20.718 18.941 19.2166 20.4681 18.9098 20.7915C17.8914 20.8082 16.8801 20.6192 15.9364 20.2359C14.9927 19.8525 14.1361 19.2827 13.4179 18.5606C11.9846 17.114 11.1686 15.1677 11.1418 13.1316C11.5122 12.7604 13.0374 11.2608 13.0402 11.258C13.3216 10.9768 13.5448 10.643 13.6971 10.2755C13.8494 9.90795 13.9278 9.51404 13.9278 9.11622C13.9278 8.71841 13.8494 8.32449 13.6971 7.95698C13.5448 7.58948 13.3216 7.25559 13.0402 6.9744L10.2338 4.16864C9.65438 3.61572 8.88421 3.30723 8.08328 3.30723C7.28234 3.30723 6.51217 3.61572 5.93271 4.16864L4.43226 5.66825C3.31766 6.78284 2.99512 9.2049 3.60897 11.8389C4.15751 14.1939 5.69381 17.8822 9.89474 22.0841C14.0957 26.2861 17.7849 27.8216 20.139 28.3706C20.9727 28.5692 21.8263 28.6722 22.6833 28.6775C23.992 28.7751 25.2888 28.3707 26.31 27.5463L27.8104 26.0465C28.093 25.7641 28.3171 25.4288 28.4701 25.0597C28.623 24.6906 28.7017 24.295 28.7017 23.8955C28.7017 23.496 28.623 23.1004 28.4701 22.7313C28.3171 22.3622 28.093 22.0268 27.8104 21.7444ZM27.1452 25.3812L25.6448 26.8807C24.9152 27.6103 22.9975 28.0688 20.3522 27.4541C18.1176 26.9331 14.6048 25.4639 10.56 21.4191C3.2423 14.1005 3.68151 7.74942 5.09747 6.33346L6.59792 4.83395C6.99809 4.45199 7.53003 4.23887 8.08323 4.23887C8.63643 4.23887 9.16837 4.45199 9.56853 4.83395L12.3748 7.64009C12.7661 8.03111 12.9862 8.5615 12.9867 9.11471C12.9873 9.66793 12.7681 10.1987 12.3775 10.5905C12.3775 10.5905 10.8467 12.0959 10.4764 12.4668C10.3615 12.5816 10.2081 12.8086 10.2071 13.4463C10.3234 15.6185 11.2284 17.6736 12.7524 19.2259C15.0863 21.5593 18.8131 22.202 19.5123 21.5028C19.8827 21.1325 21.3859 19.6035 21.3859 19.6035C21.7778 19.2126 22.3088 18.993 22.8625 18.993C23.4161 18.993 23.9471 19.2126 24.3391 19.6035L27.1452 22.4098C27.3404 22.6049 27.4952 22.8365 27.6008 23.0914C27.7065 23.3464 27.7608 23.6196 27.7608 23.8955C27.7608 24.1715 27.7065 24.4447 27.6008 24.6997C27.4952 24.9546 27.3404 25.1861 27.1452 25.3812Z" fill="#0F0F0F"/>
</svg>

<svg xmlns="http://www.w3.org/2000/svg" width="32" height="32" viewBox="0 0 32 32"><path d="M17.5 9a5.5 5.5 0 1 1 11 0 5.5 5.5 0 0 1-11 0M23 4.5a4.5 4.5 0 1 0 0 9 4.5 4.5 0 0 0 0-9M19.5 9a.5.5 0 0 1 .5-.5h6a.5.5 0 0 1 0 1h-6a.5.5 0 0 1-.5-.5M27.81 21.744l-2.805-2.806a3.034 3.034 0 0 0-4.287.003s-1.501 1.527-1.808 1.85a7.57 7.57 0 0 1-5.492-2.23 7.86 7.86 0 0 1-2.276-5.43c.37-.37 1.895-1.87 1.898-1.873a3.027 3.027 0 0 0 0-4.284L10.234 4.17a3.115 3.115 0 0 0-4.301 0l-1.5 1.5c-1.115 1.114-1.438 3.536-.824 6.17.549 2.355 2.085 6.043 6.286 10.245s7.89 5.738 10.244 6.287a11.3 11.3 0 0 0 2.544.306 5.16 5.16 0 0 0 3.627-1.13l1.5-1.5a3.04 3.04 0 0 0 0-4.303m-.665 3.637-1.5 1.5c-.73.73-2.648 1.188-5.293.573-2.234-.52-5.747-1.99-9.792-6.035C3.242 14.101 3.682 7.75 5.097 6.333l1.5-1.5a2.15 2.15 0 0 1 2.972 0l2.806 2.807a2.087 2.087 0 0 1 .002 2.95s-1.53 1.506-1.9 1.877c-.116.115-.269.342-.27.98a8.93 8.93 0 0 0 2.545 5.779c2.334 2.333 6.061 2.976 6.76 2.277.37-.37 1.874-1.9 1.874-1.9a2.09 2.09 0 0 1 2.953 0l2.806 2.807a2.1 2.1 0 0 1 0 2.971"/></svg>
